_includes/icons/ios-sql.svg

<svg fill="#666" height="50" viewBox="0 0 50 50" width="50" xmlns="http://www.w3.org/2000/svg"><path d="m6.667969 4c-1.460938 0-2.667969 1.207031-2.667969 2.667969v36.664062c0 1.460938 1.207031 2.667969 2.667969 2.667969h36.664062c1.460938 0 2.667969-1.203125 2.667969-2.667969v-36.664062c0-1.460938-1.203125-2.667969-2.667969-2.667969zm0 2h36.664062c.371094 0 .667969.296875.667969.667969v36.664062c0 .371094-.296875.667969-.667969.667969h-36.664062c-.371094 0-.667969-.296875-.667969-.667969v-36.664062c0-.371094.296875-.667969.667969-.667969zm18.550781 13.769531c-2.25 0-3.34375 2.429688-3.34375 5.144532 0 3.300781 1.195313 5.207031 3.160156 5.207031.089844 0 .257813.089844.480469.207031.75.453125 1.726563.960938 2.59375 1.324219l.691406-1.488281c-.628906-.238282-1.332031-.464844-1.976562-.75v-.074219c.945312-.511719 1.515625-2.070313 1.515625-4.574219 0-2.308594-.675781-4.996094-3.121094-4.996094zm-5.957031.03125c-2.113281 0-3.195313 1.351563-3.195313 2.96875 0 .917969.527344 1.980469 1.90625 2.824219.855469.550781 1.304688.914063 1.304688 1.644531 0 .664063-.449219 1.140625-1.382813 1.140625-.566406 0-1.257812-.164062-1.660156-.390625l-.285156 1.699219c.328125.191406 1.121094.402344 1.933594.402344 1.980468 0 3.347656-1.214844 3.347656-3.058594 0-1.066406-.496094-2.085937-1.832031-2.894531-1.09375-.660156-1.394532-.976563-1.394532-1.574219 0-.542969.402344-1.050781 1.242188-1.050781.570312 0 1.007812.164062 1.289062.34375l.316407-1.695313c-.300782-.179687-.929688-.359375-1.589844-.359375zm10.320312.089844v10.109375h4.558594v-1.664062h-2.59375v-8.445313zm-4.453125 1.589844c.871094 0 1.152344 1.484375 1.152344 3.375 0 2.101562-.328125 3.554687-1.152344 3.554687-.871093 0-1.234375-1.453125-1.21875-3.507812 0-1.90625.40625-3.421875 1.21875-3.421875z"/></svg>

<svg xmlns="http://www.w3.org/2000/svg" viewBox="0 0 50 50" width="50" height="50" fill="#666"><path d="M 6.667969 4 C 5.207031 4 4 5.207031 4 6.667969 L 4 43.332031 C 4 44.792969 5.207031 46 6.667969 46 L 43.332031 46 C 44.792969 46 46 44.796875 46 43.332031 L 46 6.667969 C 46 5.207031 44.796875 4 43.332031 4 Z M 6.667969 6 L 43.332031 6 C 43.703125 6 44 6.296875 44 6.667969 L 44 43.332031 C 44 43.703125 43.703125 44 43.332031 44 L 6.667969 44 C 6.296875 44 6 43.703125 6 43.332031 L 6 6.667969 C 6 6.296875 6.296875 6 6.667969 6 Z M 25.21875 19.769531 C 22.96875 19.769531 21.875 22.199219 21.875 24.914063 C 21.875 28.214844 23.070313 30.121094 25.035156 30.121094 C 25.125 30.121094 25.292969 30.210938 25.515625 30.328125 C 26.265625 30.78125 27.242188 31.289063 28.109375 31.652344 L 28.800781 30.164063 C 28.171875 29.925781 27.46875 29.699219 26.824219 29.414063 L 26.824219 29.339844 C 27.769531 28.828125 28.339844 27.269531 28.339844 24.765625 C 28.339844 22.457031 27.664063 19.769531 25.21875 19.769531 Z M 19.261719 19.800781 C 17.148438 19.800781 16.066406 21.152344 16.066406 22.769531 C 16.066406 23.6875 16.59375 24.75 17.972656 25.59375 C 18.828125 26.144531 19.277344 26.507813 19.277344 27.238281 C 19.277344 27.902344 18.828125 28.378906 17.894531 28.378906 C 17.328125 28.378906 16.636719 28.214844 16.234375 27.988281 L 15.949219 29.6875 C 16.277344 29.878906 17.070313 30.089844 17.882813 30.089844 C 19.863281 30.089844 21.230469 28.875 21.230469 27.03125 C 21.230469 25.964844 20.734375 24.945313 19.398438 24.136719 C 18.304688 23.476563 18.003906 23.160156 18.003906 22.5625 C 18.003906 22.019531 18.40625 21.511719 19.246094 21.511719 C 19.816406 21.511719 20.253906 21.675781 20.535156 21.855469 L 20.851563 20.160156 C 20.550781 19.980469 19.921875 19.800781 19.261719 19.800781 Z M 29.582031 19.890625 L 29.582031 30 L 34.140625 30 L 34.140625 28.335938 L 31.546875 28.335938 L 31.546875 19.890625 Z M 25.128906 21.480469 C 26 21.480469 26.28125 22.964844 26.28125 24.855469 C 26.28125 26.957031 25.953125 28.410156 25.128906 28.410156 C 24.257813 28.410156 23.894531 26.957031 23.910156 24.902344 C 23.910156 22.996094 24.316406 21.480469 25.128906 21.480469 Z"/></svg>
